X:19
T:Fisher's Hornpipe,aka. RDO.19
T:Egg Hp,aka. RDO.19
T:China Orange Hp,aka.RDO.19
M:2/4
L:1/16
Q:1/4=80
C:untitled in ms
S:Robert D. Owen MS,Indiana,1826.
R:.Hornpipe
O:Indiana,USA
A:New Harmony
N:Untitled in MS.
Z:vmp.Chris Partington
K:F
c2|fcAc BdcB|AcAc BdcB|AFAF BGBG|cAGF EGEC|!
fcAc BdcB|AcAc BdcB|Acfa agfe|f2f2f2:|!
|:ef|gece gebg|afcf afc'a|gece geba|gfed c2^c2|!
dBFB dBfd|cAFA cAfc|dfed cNBAG|F2F2F2:|

